X:1
T:RVW2/1/56 Geordie
T:RVW2/1/56 Geordie
T:Transcribed by Simon Furey and Lewis Jones
C:Transcribed by Simon Furey and Lewis Jones
L:1/8
Q:1/4=60
M:2/4
K:C
V:1 treble 
V:1
"^(Editorial suggestion)" G | cBcd |"^(a)" cA Gg |"^(b)" gece | g2 ee |"^(c)" ggge/d/ | cAGc | %7
 deGG | c>d c || G | cBcd |"^(a) var." cc Gg |"^(b) var." fdce | g2 ee |"^(c) var." ggfg | cAGc | %16
 deGG | c>d c |] %18

